!!!COM: Scarlatti, Domenico
!!!CDT: 1685-1757
!!!OTL: Sonata in D major, L.334, K.122
!!!SCT: K. 122
!!!SCT: L. 334
!!!OMD: Allegro ([quarter-dot]=80)
**kern	**kern	**dynam
*staff2	*staff1	*staff1/2
*Icemba	*Icemba	*
*I"L.334 (K.122)	*I"L.334 (K.122)	*
*>[A,A,B,B]	*>[A,A,B,B]	*>[A,A,B,B]
*>norep[A,B]	*>norep[A,B]	*>norep[A,B]
*>A	*>A	*>A
*clefF4	*clefG2	*
*k[f#c#]	*k[f#c#]	*
*D:	*D:	*
*M3/8	*M3/8	*
*MM120	*MM120	*
=1	=1	=1
*clefG2	*	*
8d' 8f#'L	(32ff#LLL	f >
.	32ggJ	.
.	16aaJJ)	.
8e' 8g'	8gg'L	] p
8f#' 8a'J	8ff#'J	.
=2	=2	=2
8g' 8b'	8ee'L	.
8r	8dd'	.
8r	8cc#'J	.
=3	=3	=3
8d' 8f#'L	(32ff#LLL	f >
.	32ggJ	.
.	16aaJJ)	.
8e' 8g'	8gg'L	] p
8f#' 8a'J	8ff#'J	.
=4	=4	=4
8g'	8b'L	.
8r	8cc#'	.
8r	8dd'J	.
=5	=5	=5
8d' 8f#'L	(32ff#LLL	f >
.	32ggJ	.
.	16aaJJ)	.
8e' 8g'	8gg'L	] p
8f#' 8a'J	8ff#'J	.
!!LO:LB:g=z
=6	=6	=6
4g 4b	(8aa#L	f
.	8bb)	.
8f#' 8a'	([8aanJ	.
=7	=7	=7
4e 4g 4cc#	8aaL]	.
.	8gg)	.
8f#' 8a' 8dd'	8ff#'J	.
=8	=8	=8
8A 8a	(8eeLMM	.
8r	8dd)	.
8r	8ee'J	.
=9	=9	=9
8d' 8f#'L	(32ff#LLL	p
.	32ggJ	.
.	16aaJJ)	.
8e' 8g'	8gg'L	.
8f#' 8a'J	8ff#'J	.
=10	=10	=10
4g 4b	(8aa#L	.
.	8bb)	.
8f#' 8a'	([8aanJ	.
=11	=11	=11
4e 4g 4cc#	8aaL]	.
.	8gg)	.
8f#' 8a' 8dd'	8ff#'J	.
*clefF4	*	*
!!LO:LB:g=z
=12||	=12||	=12||
*M4/4	*M4/4	*M4/4
*met(c)	*met(c)	*met(c)
*MM120	*MM120	*MM120
!!!OMD: Allegro ([half]=120)
4AA 4E 4A	8.cc# (8.eeL	mf
.	16dd 16ff#Jk	.
4AA 4E 4A	8.cc# 8.eeL	.
.	16dd 16ff#Jk	.
4AA 4E 4A	8.cc# 8.eeL	.
.	16dd 16aaJk	.
4AA 4E 4A	8.cc# 8.eeL	.
.	16dd 16ff#Jk	.
=13	=13	=13
4AA 4E 4A	8.cc# 8.eeL	.
.	16dd 16aaJk	.
4AA 4E 4A	8.cc# 8.eeL	.
.	16dd 16ff#Jk	.
2AA; 2E; 2A;	2cc#mm< 2eeMM)	> ]
=14||	=14||	=14||
*M3/8	*M3/8	*M3/8
*MM120	*MM120	*MM120
*clefG2	*	*
!!!OMD: Tempo Io.
8a' 8ccn'L	(32eeLLL	p
.	32ffnJ	.
.	16ggJJ)	.
8a' 8cc'	8ff'L	.
8a' 8cc'J	8ee'J	.
=15	=15	=15
8fn' 8a' 8dd'L	(8dddL	>
8f' 8a' 8dd'	8gg#)	]
8f' 8a' 8dd'J	8aa'J	.
!!LO:LB:g=z
=16	=16	=16
8fn' 8a' 8dd'L	(32eeLLL	.
.	32ffnJ	.
.	16ggJJ)	.
8f' 8a' 8dd'	8ff'L	.
8f' 8a' 8dd'J	8ee'J	.
=17	=17	=17
8e' 8a' 8ccn'L	(8cccnL	>
8e' 8a' 8cc'	8gg#)	]
8e' 8a' 8cc'J	8aa'J	.
=18	=18	=18
8e' 8a' 8ccn'L	(32eeLLL	.
.	32ffnJ	.
.	16ggJJ)	.
8e' 8a' 8cc'	8ff'L	.
8e' 8a' 8cc'J	8ee'J	.
=19	=19	=19
8d' 8a' 8b'L	(8dddL	>
8d' 8a' 8b'	8gg#)	]
8d' 8a' 8b'J	8aa'J	.
=20	=20	=20
8d' 8a' 8b'L	(32eeLLL	.
.	32ffnJ	.
.	16ggJJ)	.
8d' 8a' 8b'	8ff'L	.
8d' 8a' 8b'J	8ee'J	.
=21	=21	=21
8cn' 8e' 8a'L	(8cccnL	>
8c' 8e' 8a'	8gg#)	]
8c' 8e' 8a'J	8aa'J	.
!!LO:LB:g=z
=22	=22	=22
4A	(32ffnLLL	mf
.	32ggJ	.
.	16aaJJ)	.
.	8gg'L	.
([8a	8ff'J	.
=23	=23	=23
8aL]	(8dd#L	.
8g#)	8ddn 8ee)	.
8a'J	8ccn' 8ee'J	.
=24	=24	=24
*^	*	*
4.fn	4d	(8b- 8ddL	.
.	.	8a)	.
.	8d'>	8g#'J	.
*v	*v	*	*
=25	=25	=25
!	!LO:MOR:acc=n	!
(8c# 8eL	(8aLMM	>
8B) 8d	8g#)	.
8A' 8c#'J	8a'J	]]
=26	=26	=26
4A	(32ffnLLL	p
.	32ggJ	.
.	16aaJJ)	.
.	8ff'L	.
([8a	8ee'J	.
=27	=27	=27
8aL]	(8dd#L	.
8g#)	8ddn 8ee)	.
8a'J	8ccn' 8ee'J	.
!!LO:LB:g=z
=28	=28	=28
4d 4fn	(8b- 8ddL	.
.	8a)	.
8d' 8f'	8g#'J	.
=29	=29	=29
4cn 4e	(8g#L	<
.	8a)	.
*clefF4	*	*
8B' 8d'	8gn'J	.
=30	=30	=30
4A 4cn	(8fnLMM	.
.	8e)	.
8A' 8c'	8d#'J	.
=31	=31	=31
4G# 4B	(8d#L	mf
.	8eJ)	.
8A' 8cn'	(32ccnLLL	.
.	32ddJ	.
.	16eeJJ)	.
=32	=32	=32
4B 4d	(8eeL	.
.	8ddMM	.
8cn' 8e'	8ccnJ)	.
=33	=33	=33
4d 4fn	(8ccnL	.
.	8bmm	.
8cn' 8e'	8aJ)	.
!!LO:LB:g=z
=34	=34	=34
4B 4d	(8aL	.
.	8g#J)	.
.	[16aqq	.
8cn' 8e'	(16aTLL]	.
.	32g#L	.
.	32aJJJ)	.
=35	=35	=35
4G# 4B 4e	(8aL<	.
.	8bJ)	.
8A' 8cn' 8e'	(32ccnLLL	p
.	32ddJ	.
.	16eeJJ)	.
=36	=36	=36
4B 4d 4e	(8eeL	<
.	8ddMM	.
8cn' 8e'	8ccnJ)	.
=37	=37	=37
*^	*	*
8rb	(4d	(8ccnL	.
8fnL	.	8bmm	.
8eJ	8cn)	8aJ)	.
*v	*v	*	*
=38	=38	=38
8G#' 8d' 8e'L	8dd'L	.
(8A	(8ccnJMM	.
8AAJ)	32ccLLL	.
.	32bJ	.
.	16cc'JJ)	.
=39	=39	=39
8D'L	(8ccnL	.
8d (8fn	8bmm	.
8cn 8eJ)	8aJ)	.
!!LO:LB:g=z
=40	=40	=40
8G#' 8d' 8e'	(32bLLL	.
.	32ccnJ	.
.	16ddJJ)	.
(8AL	(8ccLMM	.
8AAJ)	32ccLL	.
.	32bJ	.
.	16cc'JJ)	.
=41	=41	=41
8EE	8b'	f
*clefG2	*	*
(8eeL	8r	.
8cc#XJ)	8ccc#X'	.
*clefF4	*	*
=42	=42	=42
8DD	(8ff#L	.
*clefG2	*	*
(8ddL	8gg#)	.
8bJ)	8bb'J	.
*clefF4	*	*
=43	=43	=43
8CC#	(8eeL	.
*clefG2	*	*
(8cc#L	8aa)	.
8aJ)	8ccc#'J	.
*clefF4	*	*
=44	=44	=44
8BBB	(8ddL	.
*clefG2	*	*
(8bL<	8bb)	.
8g#J)	8ddd'J	.
*clefF4	*	*
=45	=45	=45
8AAA	(8ccc#L	.
*clefG2	*	*
(8eeL	8gg#)	.
8cc#J)	8aa'J	.
*clefF4	*	*
!!LO:LB:g=z
=46	=46	=46
8DD	(8ff#L	.
*clefG2	*	*
(8ddL	8gg#)	.
8bJ)	8bb'J	.
*clefF4	*	*
=47	=47	=47
8CC#	(8eeL	.
*clefG2	*	*
(8cc#L	8aa)	.
8aJ)	8ccc#'J	.
*clefF4	*	*
=48	=48	=48
8BBB	(8ddL	.
*clefG2	*	*
(8bL<	8bb)	.
8g#J)	8ddd'J	.
*clefF4	*	*
=49	=49	=49
8AAA'L	8ccc#'L	.
8BBB'	8gg#'	.
8CC#'J	8aa'J	.
=50	=50	=50
8DD' 8D'L	(32ff#LLL	.
.	32eeJ	.
.	16ddJJ)	.
8E'	8cc#'L	.
8EE'J	8b'J	.
=51	=51	=51
4AA	8a'	.
.	8ccc#'L	p
8A'	8aa'J	.
!!LO:LB:g=z
=52	=52	=52
8B'L	8d'	<
8G#'	8bb'L	.
8E'J	8gg#'J	.
=53	=53	=53
4AA	8c#'	.
.	8ccc#'L	.
8A'	8aa'J	.
=54	=54	=54
8B'L	8d'	.
8G#'	8bb'L	.
8E'J	8gg#'J	.
=55	=55	=55
(8AAL	(8AL	mf
8C#)	8c#J)	<
8AA'J	8ccc#'	.
=56	=56	=56
(8BBL	(8G#L	.
8GG#)	8BJ)	.
8EE'J	8ddd'	.
=57	=57	=57
(8AAL	(8AL	.
8C#)	8c#J)	.
8AA'J	8ccc#'	.
=58	=58	=58
(8BBL	(8G#L	.
8GG#)	8BJ)	.
8EE'J	8ddd'	.
!!LO:LB:g=z
=59	=59	=59
8AA'L	(32ccc#LLL	f
.	32bbJ	.
.	16aaJJ)	.
8BB'	8gg#'L	.
8C#'J	8aa'J	.
=60	=60	=60
8D'L	(32ff#LLL	.
.	32eeJ	.
.	16ddJJ)	.
8E'	8cc#'L	.
8EE'J	8b'J	.
=61	=61	=61
8AA	8a'	.
*clefG2	*	*
8a'L	8r	.
8cc#'J	8aa'	p
*clefF4	*	*
=62	=62	=62
8D'	(8ff#L	.
*clefG2	*	*
8b'L	8gg#)	<
8dd'J	8bb'J	.
*clefF4	*	*
=63	=63	=63
8C#'	(8eeL	.
*clefG2	*	*
8cc#'L	8aa)	.
8ee'J	8ccc#'J	.
*clefF4	*	*
=64	=64	=64
8D'	(8ff#L	.
*clefG2	*	*
8dd'L	8bb)	.
8ff#'J	8ddd'J	.
*clefF4	*	*
!!LO:LB:g=z
=65	=65	=65
4EE	(8gg#L	.
.	8ee)	.
8E'	8ddd'J	.
=66	=66	=66
8A'L	(32ccc#LLL	f
.	32bbJ	.
.	16aaJJ)	.
8e'	8aa' 8ccc#'L	.
8E'J	8gg#' 8bb'J	.
=67	=67	=67
8AA'	(8aaL	.
*clefG2	*	*
8a'L	8ee)	.
8cc#'J	8aa'J	.
*clefF4	*	*
=68	=68	=68
8D'	(8ff#L	.
*clefG2	*	*
8b'L	8gg#)	.
8dd'J	8bb'J	.
*clefF4	*	*
=69	=69	=69
8C#'	(8eeL	.
*clefG2	*	*
8cc#'L	8aa)	.
8ee'J	8ccc#'J	.
*clefF4	*	*
=70	=70	=70
8D'	(8ff#L	.
*clefG2	*	*
8dd'L	8bb)	.
8ff#'J	8ddd'J	.
*clefF4	*	*
!!LO:LB:g=z
=71	=71	=71
4EE	(8gg#L	.
.	8ee)	.
8E'	8ddd'J	.
=72	=72	=72
8A'L	(32ccc#LLL	.
.	32bbJ	.
.	16aaJJ)	.
8E'J	8aa' 8ccc#'L	.
8EE'	8gg#' 8bb'J	.
=73	=73	=73
4AA	(8aaL	.
.	8ggn 8bb)	.
8a'	(<[8ffn' 8cccn'J	.
=74	=74	=74
*	*^	*
4g#	4.bb^	8ffnXL]	.
.	.	8ee)	.
8g#'	.	8dd'J	.
*	*v	*v	*
=75	=75	=75
8a'L	(32ccnLLL	.
.	32bJ	.
.	16ccJJ)	.
8d'	8dd'L	.
8e'J	8b'J	.
=76	=76	=76
4A	8aL	.
.	8g 8b	.
8A'	([8fn 8ccnJ	.
=77	=77	=77
*	*^	*
4G#	4.b^	8fnXL]	.
.	.	8e')	.
8G#'	.	8dJ	.
*	*v	*v	*
!!LO:LB:g=z
=78	=78	=78
8A'L	(32cnLLL	.
.	32BJ	.
.	16cJJ)	.
8D'	8d'L	.
8E'J	8B'J	.
=79	=79	=79
4AA	(32c#XLLL	p
.	32AJ	.
.	16c#JJ)	.
.	8e'L	.
8C#'	8a'J	.
=80	=80	=80
8D'L	(32ddLLL	.
.	32cc#J	.
.	16bJJ)	.
8E'	8a' 8cc#'L<	.
8EEJ	8g#' 8b'J	.
=81	=81	=81
8AA'L	(32cc#LLL	f
.	32aJ	.
.	16cc#JJ)	.
8A'	8aa'L	.
8c#'J	8a'J	.
=82	=82	=82
8d'L	(32ddLLL	.
.	32cc#J)	.
.	16bJJ	.
8e'	8a' 8cc#'L<	.
8E'J	8g#' 8b'J	.
=83	=83	=83
4.AA	4.a	.
!!LO:LB:g=z
=84:|!|:	=84:|!|:	=84:|!|:
*>B	*>B	*>B
4.r	(32eeLLL	p
.	32ffnJ	.
.	16ggJJ)	.
.	8ff'L	.
.	8ee'J	.
=85	=85	=85
8A' 8e' 8g'L	(8bb-L	sf >
8A' 8e' 8g'	8gg)	.
8A' 8e' 8g'J	8ee'J	]]
=86	=86	=86
8A' 8e' 8g'L	8cc#'L<	p
8A' 8e'	8b-'	.
8A' 8e'J	8g#'J	.
=87	=87	=87
8A' 8d' 8fn'L	(8g#	.
8A' 8d' 8f'	4a)	.
8A' 8d' 8f'J	.	.
=88	=88	=88
8A' 8d' 8fn'L	(32ddLLL	.
.	32eeJ	.
.	16ffnJJ)	.
8A' 8d' 8f'	8ee'L	.
8A' 8d' 8f'J	8dd'J	.
=89	=89	=89
8G' 8A' 8c#X' 8e'L	(8ggL	f >
8G' 8A' 8c#' 8e'	8ee)	.
8G' 8A' 8c#' 8e'J	8cc#'J	]]
!!LO:LB:g=z
=90	=90	=90
8G' 8A' 8c#X' 8e'L	(8b-L	p
8G' 8A' 8c#'	8g)	.
8G' 8A' 8c#'J	8e'J	.
=91	=91	=91
8Fn' 8A' 8d'L	(8eL	.
8F' 8A' 8d'	8fn)	.
8F' 8A' 8d'J	8a'J	.
=92	=92	=92
8G' 8B-' 8d'L	(8fnLMM	.
8G 8B- 8d	8e)	<
8G' 8A' 8c#X'J	8g'J	.
=93	=93	=93
8Fn' 8A'L	(8eLmm	.
8F' 8A'	8d)	.
8F' 8A' 8d'J	8a'J	.
=94	=94	=94
8G' 8B-' 8d'L	(8fnLMM	.
8G' 8B-' 8d'	8e)	.
8G' 8A' 8c#X'J	8g'J	.
=95	=95	=95
8Fn' 8A'L	(8eLmm	.
8F' 8A'	8d)	.
8F' 8A' 8d'J	8dd'J	.
=96	=96	=96
(8cnL	(8aLMM	mf
8Bn)	8g#)	<
([8dJ	8dd'J	.
!!LO:LB:g=z
=97	=97	=97
8dL]	(8ddLMM	.
8e)	8cc#)	.
8g'J	8ee'J	.
=98	=98	=98
(8fnL	(8ddLMM	.
8e)	8cc#J)	.
8d'J	(32ddLLL	.
.	32cc#J	.
.	16ddJJ)	.
*clefG2	*	*
=99	=99	=99
*^	*	*
(8A	(4.A	8ee'L	f
[4a	.	(8aa	.
.	.	8bb-J	.
=100	=100	=100	=100
8a]	4.B-)	8ddL	.
[4g)	.	8cc#J)	.
.	.	(32ddLLL	.
.	.	32cc#J	.
.	.	16ddJJ)	.
=101	=101	=101	=101
8gL]	(4.A	8ee'L	.
(<8fn [8a	.	(8aa	.
8e 8aJ_	.	8bb-J	.
=102	=102	=102	=102
8a]	4.B-) 4.d)	8ddL	.
4g	.	8cc#J)	.
.	.	(32ddLLL	.
.	.	32cc#J	.
.	.	16ddJJ)	.
*v	*v	*	*
*clefF4	*	*
!!LO:LB:g=z
=103	=103	=103
8AA'L	8e'	.
8E'	8aa'L	.
8A'J	8ccc#'J	.
=104	=104	=104
8D'L	8d'	.
8Fn'	8aa'L	.
8A'J	8ddd'J	.
=105	=105	=105
8AA'L	8e'	.
8E'	8aa'L	.
8A'J	8ccc#'J	.
=106	=106	=106
8D'L	8d'	.
8Fn'	8aa'L	.
8A'J	8ddd'J	.
=107	=107	=107
8AAL	8e'	.
8E'	8aa'L	.
8A'J	8ccc#'J	.
=108	=108	=108
8D'L	8d'	.
8Fn'	8aa'L	.
8A'J	8ddd'J	.
=109	=109	=109
(8AAL	(8ccc#L	.
8E)	8aa)	.
8A'J	8ee'J	.
!!LO:LB:g=z
=110	=110	=110
(8dL	(8ffnLMM	.
8c#)	8ee)	.
8d'J	8ff'J	.
=111	=111	=111
8AA'L	4ee	.
8a'	.	.
8f#'J	8aa'	p
=112	=112	=112
8GG'L	(8aa#L	.
8g'	8bb)	.
8e'J	8gg'J	.
=113	=113	=113
8FF#'L	(8gg#L	.
8f#'	8aan)	.
8d'J	8ff#'J	.
=114	=114	=114
8EE'L	(32ff#LLL	.
.	32eeJ	.
.	16ff#JJ)	.
8e'	8gg'L	.
8c#'J	8ee'J	.
=115	=115	=115
8DD'L	(8eeL	<
8a'	8ff#)	.
8f#'J	8aa'J	.
=116	=116	=116
8GG'L	(8aa#L	.
8g'	8bb)	.
8e'J	8gg'J	.
!!LO:LB:g=z
=117	=117	=117
8FF#'L	(8gg#L	.
8f#'	8aa)	.
8d'J	8ff#'J	.
=118	=118	=118
8EE'L	(32ff#LLL	.
.	32eeJ	.
.	16ff#JJ)	.
8e'	8gg'L	.
8c#'J	8ee'J	.
=119	=119	=119
8DD'L	(8ff#L	f
8f#'	8dd)	.
8a'J	8aa'J	.
=120	=120	=120
4.AAA	8cc#' 8ee'L	.
.	8dd' 8ff#'	.
.	8ee' 8gg'J	.
=121	=121	=121
*	*^	*
8DD'L	(8ff#L	4.dd	.
8f#'	8gg)	.	.
8a'J	8aaJ	.	.
*	*v	*v	*
=122	=122	=122
4.AAA	8cc#' 8ee'L	.
.	8dd' 8ff#'	.
.	8ee' 8gg'J	.
=123	=123	=123
8D'L	(32ff#LLL	.
.	32eeJ	.
.	16ff#')	.
8E'	(32ggL	.
.	32ff#J	.
.	16gg'J)	.
8F#'J	8aa'J	.
!!LO:LB:g=z
=124	=124	=124
(8GL	8ee (8ggL	.
8A)	8dd 8ff#)	.
8AA'J	8cc#' 8ee'J	.
=125	=125	=125
8DD'L	4dd	.
8f#'	.	.
8a'J	([8aa	.
=126	=126	=126
4.AAA	8aaL]	.
.	8gg)	.
.	8ee'J	.
=127	=127	=127
8DD'L	8ff#'L	.
8f#'	8gg'	.
8a'J	([8aaJ	.
=128	=128	=128
4.AAA	8aaL]	.
.	8gg)	.
.	8ee'J	.
=129	=129	=129
8D'L	(32ff#LLL	.
.	32eeJ	.
.	16ff#'J)	.
8E'	(32ggLL	.
.	32ff#J	.
.	16gg'J)	.
8F#'J	8aa'J	.
=130	=130	=130
(8GL	8ee (8ggL	.
8A)	8dd 8ff#)	.
8AA'J	8cc#' 8ee'J	.
!!LO:LB:g=z
=131	=131	=131
4D	(8ddL	.
.	8ccn 8ee)	.
8d'	(<[8b-' 8ffn'J	.
=132	=132	=132
*	*^	*
4.c#	4.ee	8b-XL]	.
.	.	8a')	.
.	.	8g'J	.
*	*v	*v	*
=133	=133	=133
8d'L	(32fnLLL	.
.	32eJ	.
.	16fJJ)	.
8G'	8g'L	.
8A'J	8e'J	.
*	*clefF4	*clefF4
=134	=134	=134
4D	(8dL	p
.	8cn 8e)	.
8D'	(<[8B-' 8f#'J	.
=135	=135	=135
*	*^	*
4C#	4.e	8B-XL]	.
.	.	8A)	.
8C#'	.	8G'J	.
*	*v	*v	*
=136	=136	=136
8D'L	(32FnLLL	<
.	32EJ	.
.	16FJJ)	.
8GG'	8G'L	.
8AA'J	8E'J	.
!!LO:LB:g=z
=137	=137	=137
8D'L	(32FnLLL	.
.	32EJ	.
.	16FJJ)	.
8GG'	8G'L	.
8AA'J	8E'J	.
=138	=138	=138
8DD'L	8D'L	f
8FF#X'	8F#X'	.
8AA'J	8A'J	.
*	*clefG2	*clefG2
=139	=139	=139
8D'L	8d'L	.
8F#'	8f#'	.
8A'J	8a'J	.
=140	=140	=140
8dL	8dd'L	.
8f#'	8ff#'	.
8a'J	8aa'J	.
=141	=141	=141
4DD^ 4D^	8r	.
.	8ddd'L	f
8FF#' 8F#'	8dd'J	.
=142	=142	=142
8GG' 8G'L	(32ggLLL	.
.	32ff#J	.
.	16eeJJ)	.
8AA' 8A'	8dd' 8ff#'L	.
8AA' 8A'J	8cc#' 8ee'J	.
=143	=143	=143
8DD' 8D'L	4.dd	.
8FF#' 8F#'	.	.
8AA' 8A'J	.	.
!!LO:LB:g=z
=144	=144	=144
8D'L	8d'L	.
8F#'	8f#'	.
8A'J	8a'J	.
=145	=145	=145
8d'L	8dd'L	.
8f#'	8ff#'	.
8a'J	8aa'J	.
=146	=146	=146
4DD^ 4D^	8r	.
.	8ddd'L	.
8FF#' 8F#'	8dd'J	.
=147	=147	=147
8GG' 8G'L	(32ggLLL	.
.	32ff#J	.
.	16eeJJ)	.
8AA' 8A'	8dd' 8ff#'L	.
8AA' 8A'J	8cc#' 8ee'J	.
=148	=148	=148
4DD 4D	8dd'L	.
.	8ddd'J	.
8F#'	8d'	.
=149	=149	=149
8G'L	(32gLLL	.
.	32f#J	.
.	16eJJ)	.
8A'	8d' 8f#'L	.
8AA'J	8c#' 8e'J	.
=150	=150	=150
4.DD^ 4.D^@	4.d^	.
==:|!	==:|!	==:|!
*-	*-	*-
!!!RDF**kern: > = above
!!!RDF**kern: < = below
!!!RDF**dynam: < = cres.
!!!RDF**kern: @ = marked note, color="sliver", optional note
!!!verovio: beamFrenchStyle 1
!!!URL-vhv: https://verovio.humdrum.org/?file=scarlatti/sonatas/L334K122.krn
!!!URL-pdf: https://github.com/craigsapp/scarlatti-keyboard-sonatas/blob/master/reference-edition/L334K122.pdf
!!!PTL: Domenico Scarlatti: Opere complete per clavicembalo
!!!PED: Longo, Alessandro
!!!PPR: Ricordi
!!!PPP: Milan
!!!PDT: 1906-1913
!!!YEC: 2021 Craig Stuart Sapp
!!!YEM: Licence: (CC BY-NC-SA 4.0) https://creativecommons.org/licenses/by-nc-sa/4.0
!!!ENC: Craig Stuart Sapp
!!!END: 2004/11/03
!!!EED: Craig Stuart Sapp
!!!EEV: 2021/06/12
